X:2
T:223: An cumhain leatsa an oidhche ร?ยบd?
T:Do you remember that night?
B:Stanford-Petrie, Complete Collection of Irish Music, 1903.
S:"Set from M. Dineen by Mr Joyce."
N:Untitled in S-P.
L:1/8
Q:1/4=100
M:3/4
K:F
CD/E/|F2 F2 GF|E2 F2 (3GAB|c2 BG FG|E2 C2 (3CDE|
F2 F2 GF|E2 F2 (3GAB|c2 BG FG|F4 (3GAB|c2 c2 {c}BA|B2 B2 cB|
A2 G2 FG|E2 C2 (3CDE|F2 F2 GF|E2 F2 (3GAB|c2 BA F3/{A}2G/|F4|]
